docs/img/icon1/service-enterprise-solutions_mobile.svg

<svg width="151" height="196" viewBox="0 0 151 196" fill="none" xmlns="http://www.w3.org/2000/svg">
<path d="M69.6981 -0.000640869H20.628C13.7219 -0.000640869 8.63315 1.38837 5.36181 4.16635C2.45396 7.2916 1 12.1531 1 18.7508V39.5858C1 46.1835 2.45396 50.8714 5.36181 53.6494C8.63315 56.7746 13.7219 58.3372 20.628 58.3372H65.3363C70.0615 58.3372 73.6963 59.5526 76.2407 61.9834C78.7851 64.7614 80.0573 68.4075 80.0573 72.9217V80.7348H20.628C13.7219 80.7348 8.63311 82.1238 5.36178 84.9018C2.45392 88.0271 1 92.8886 1 99.4863V176.576C1 183.173 2.45392 187.861 5.36178 190.639C8.63311 193.765 13.7219 195.327 20.628 195.327H130.763C137.669 195.327 142.576 193.765 145.484 190.639C148.755 187.861 150.391 183.173 150.391 176.576V78.6513C150.391 52.2604 142.94 32.4672 128.037 19.2717C113.498 6.42346 94.0513 -0.000640869 69.6981 -0.000640869Z" fill="#FF7D04"/>
<path d="M41.1348 128.019C40.752 128.019 40.3711 128.073 39.9922 128.183C39.6172 128.292 39.25 128.423 38.8906 128.575L38.3164 127.11C38.7344 126.923 39.1797 126.776 39.6523 126.671C40.125 126.562 40.6309 126.507 41.1699 126.507C41.7988 126.507 42.3594 126.606 42.8516 126.806C43.3477 127.001 43.7656 127.288 44.1055 127.667C44.4492 128.046 44.709 128.509 44.8848 129.056C45.0645 129.603 45.1543 130.226 45.1543 130.925C45.1543 131.804 45.0059 132.573 44.709 133.233C44.416 133.89 43.9629 134.401 43.3496 134.769C42.7363 135.132 41.9531 135.313 41 135.313C40.5078 135.313 40.0645 135.278 39.6699 135.208C39.2793 135.142 38.8789 135.03 38.4688 134.874V133.351C38.9258 133.495 39.3477 133.606 39.7344 133.685C40.125 133.763 40.5117 133.802 40.8945 133.802C41.2617 133.802 41.5859 133.757 41.8672 133.667C42.1523 133.573 42.3926 133.437 42.5879 133.257C42.7871 133.073 42.9414 132.847 43.0508 132.577C43.1641 132.304 43.2285 131.985 43.2441 131.622H39.5293V130.134H43.2324C43.2207 129.798 43.1641 129.501 43.0625 129.243C42.9609 128.981 42.8184 128.759 42.6348 128.575C42.4512 128.392 42.2324 128.253 41.9785 128.159C41.7285 128.065 41.4473 128.019 41.1348 128.019ZM48.5762 128.646V131.165H51.0723V128.646H52.8594V135.196H51.0723V132.495H48.5762V135.196H46.7891V128.646H48.5762ZM60.1543 129.987H58.0098V135.196H56.2227V129.987H54.0723V128.646H60.1543V129.987ZM64.0801 128.522C64.6855 128.522 65.207 128.64 65.6445 128.874C66.082 129.104 66.4199 129.44 66.6582 129.882C66.8965 130.323 67.0156 130.862 67.0156 131.499V132.366H62.791C62.8105 132.87 62.9609 133.267 63.2422 133.556C63.5273 133.841 63.9219 133.983 64.4258 133.983C64.8438 133.983 65.2266 133.94 65.5742 133.854C65.9219 133.769 66.2793 133.64 66.6465 133.468V134.851C66.3223 135.011 65.9824 135.128 65.627 135.202C65.2754 135.276 64.8477 135.313 64.3438 135.313C63.6875 135.313 63.1055 135.192 62.5977 134.95C62.0938 134.708 61.6973 134.339 61.4082 133.843C61.123 133.347 60.9805 132.722 60.9805 131.968C60.9805 131.202 61.1094 130.565 61.3672 130.058C61.6289 129.546 61.9922 129.163 62.457 128.909C62.9219 128.651 63.4629 128.522 64.0801 128.522ZM64.0918 129.794C63.7441 129.794 63.4551 129.905 63.2246 130.128C62.998 130.351 62.8672 130.7 62.832 131.177H65.3398C65.3359 130.911 65.2871 130.675 65.1934 130.468C65.1035 130.261 64.9668 130.097 64.7832 129.976C64.6035 129.854 64.373 129.794 64.0918 129.794ZM72.1133 128.522C72.8516 128.522 73.4473 128.81 73.9004 129.384C74.3574 129.958 74.5859 130.8 74.5859 131.909C74.5859 132.651 74.4785 133.276 74.2637 133.784C74.0488 134.288 73.752 134.669 73.373 134.927C72.9941 135.185 72.5586 135.313 72.0664 135.313C71.75 135.313 71.4785 135.274 71.252 135.196C71.0254 135.114 70.832 135.011 70.6719 134.886C70.5117 134.757 70.373 134.62 70.2559 134.476H70.1621C70.1934 134.632 70.2168 134.792 70.2324 134.956C70.248 135.12 70.2559 135.28 70.2559 135.437V138.079H68.4688V128.646H69.9219L70.1738 129.495H70.2559C70.373 129.319 70.5156 129.157 70.6836 129.009C70.8516 128.86 71.0527 128.743 71.2871 128.657C71.5254 128.567 71.8008 128.522 72.1133 128.522ZM71.5391 129.952C71.2266 129.952 70.9785 130.017 70.7949 130.146C70.6113 130.274 70.4766 130.468 70.3906 130.726C70.3086 130.983 70.2637 131.31 70.2559 131.704V131.897C70.2559 132.319 70.2949 132.677 70.373 132.97C70.4551 133.263 70.5898 133.485 70.7773 133.638C70.9688 133.79 71.2305 133.866 71.5625 133.866C71.8359 133.866 72.0605 133.79 72.2363 133.638C72.4121 133.485 72.543 133.263 72.6289 132.97C72.7188 132.673 72.7637 132.312 72.7637 131.886C72.7637 131.245 72.6641 130.763 72.4648 130.438C72.2656 130.114 71.957 129.952 71.5391 129.952ZM82.0156 128.646V135.196H80.2227V129.987H77.8496V135.196H76.0625V128.646H82.0156ZM87.5352 128.522C88.2734 128.522 88.8691 128.81 89.3223 129.384C89.7793 129.958 90.0078 130.8 90.0078 131.909C90.0078 132.651 89.9004 133.276 89.6855 133.784C89.4707 134.288 89.1738 134.669 88.7949 134.927C88.416 135.185 87.9805 135.313 87.4883 135.313C87.1719 135.313 86.9004 135.274 86.6738 135.196C86.4473 135.114 86.2539 135.011 86.0938 134.886C85.9336 134.757 85.7949 134.62 85.6777 134.476H85.584C85.6152 134.632 85.6387 134.792 85.6543 134.956C85.6699 135.12 85.6777 135.28 85.6777 135.437V138.079H83.8906V128.646H85.3438L85.5957 129.495H85.6777C85.7949 129.319 85.9375 129.157 86.1055 129.009C86.2734 128.86 86.4746 128.743 86.709 128.657C86.9473 128.567 87.2227 128.522 87.5352 128.522ZM86.9609 129.952C86.6484 129.952 86.4004 130.017 86.2168 130.146C86.0332 130.274 85.8984 130.468 85.8125 130.726C85.7305 130.983 85.6855 131.31 85.6777 131.704V131.897C85.6777 132.319 85.7168 132.677 85.7949 132.97C85.877 133.263 86.0117 133.485 86.1992 133.638C86.3906 133.79 86.6523 133.866 86.9844 133.866C87.2578 133.866 87.4824 133.79 87.6582 133.638C87.834 133.485 87.9648 133.263 88.0508 132.97C88.1406 132.673 88.1855 132.312 88.1855 131.886C88.1855 131.245 88.0859 130.763 87.8867 130.438C87.6875 130.114 87.3789 129.952 86.9609 129.952ZM94.168 128.511C95.0469 128.511 95.7207 128.702 96.1895 129.085C96.6582 129.468 96.8926 130.05 96.8926 130.831V135.196H95.6445L95.2988 134.306H95.252C95.0645 134.54 94.873 134.731 94.6777 134.88C94.4824 135.028 94.2578 135.138 94.0039 135.208C93.75 135.278 93.4414 135.313 93.0781 135.313C92.6914 135.313 92.3438 135.239 92.0352 135.091C91.7305 134.942 91.4902 134.716 91.3145 134.411C91.1387 134.103 91.0508 133.712 91.0508 133.239C91.0508 132.544 91.2949 132.032 91.7832 131.704C92.2715 131.372 93.0039 131.188 93.9805 131.153L95.1172 131.118V130.831C95.1172 130.487 95.0273 130.235 94.8477 130.075C94.668 129.915 94.418 129.835 94.0977 129.835C93.7812 129.835 93.4707 129.88 93.166 129.97C92.8613 130.06 92.5566 130.173 92.252 130.31L91.6602 129.103C92.0078 128.919 92.3965 128.774 92.8262 128.669C93.2598 128.563 93.707 128.511 94.168 128.511ZM95.1172 132.161L94.4258 132.185C93.8477 132.2 93.4453 132.304 93.2188 132.495C92.9961 132.687 92.8848 132.938 92.8848 133.251C92.8848 133.524 92.9648 133.72 93.125 133.837C93.2852 133.95 93.4941 134.007 93.752 134.007C94.1348 134.007 94.457 133.894 94.7188 133.667C94.9844 133.44 95.1172 133.118 95.1172 132.7V132.161ZM100.467 128.646V131.235C100.467 131.368 100.461 131.536 100.449 131.739C100.441 131.938 100.43 132.142 100.414 132.349C100.398 132.556 100.383 132.741 100.367 132.905C100.352 133.069 100.34 133.181 100.332 133.239L103.355 128.646H105.506V135.196H103.777V132.583C103.777 132.368 103.785 132.132 103.801 131.874C103.816 131.612 103.834 131.366 103.854 131.136C103.873 130.905 103.887 130.731 103.895 130.614L100.883 135.196H98.7383V128.646H100.467ZM105.014 125.827C104.971 126.241 104.854 126.606 104.662 126.923C104.471 127.239 104.172 127.485 103.766 127.661C103.359 127.837 102.812 127.925 102.125 127.925C101.418 127.925 100.867 127.841 100.473 127.673C100.078 127.501 99.7969 127.259 99.6289 126.946C99.4609 126.63 99.3594 126.257 99.3242 125.827H100.924C100.959 126.269 101.07 126.562 101.258 126.706C101.445 126.847 101.746 126.917 102.16 126.917C102.504 126.917 102.785 126.839 103.004 126.683C103.223 126.526 103.354 126.241 103.396 125.827H105.014ZM109.771 128.522C110.244 128.522 110.686 128.585 111.096 128.71C111.506 128.831 111.838 129.021 112.092 129.278C112.346 129.532 112.473 129.86 112.473 130.263C112.473 130.657 112.354 130.972 112.115 131.206C111.877 131.437 111.561 131.603 111.166 131.704V131.763C111.443 131.829 111.693 131.919 111.916 132.032C112.143 132.146 112.322 132.302 112.455 132.501C112.588 132.7 112.654 132.962 112.654 133.286C112.654 133.649 112.539 133.985 112.309 134.294C112.078 134.599 111.725 134.845 111.248 135.032C110.775 135.22 110.168 135.313 109.426 135.313C109.074 135.313 108.742 135.298 108.43 135.267C108.121 135.235 107.838 135.19 107.58 135.132C107.322 135.069 107.098 134.995 106.906 134.909V133.433C107.176 133.558 107.508 133.673 107.902 133.778C108.301 133.884 108.725 133.937 109.174 133.937C109.498 133.937 109.791 133.913 110.053 133.866C110.318 133.819 110.527 133.741 110.68 133.632C110.836 133.519 110.914 133.368 110.914 133.181C110.914 133.005 110.846 132.86 110.709 132.747C110.576 132.63 110.371 132.544 110.094 132.489C109.82 132.431 109.473 132.401 109.051 132.401H108.359V131.165H109.016C109.609 131.165 110.068 131.116 110.393 131.019C110.717 130.921 110.879 130.741 110.879 130.479C110.879 130.269 110.775 130.11 110.568 130.005C110.361 129.899 110.02 129.847 109.543 129.847C109.234 129.847 108.895 129.884 108.523 129.958C108.152 130.028 107.805 130.13 107.48 130.263L106.953 129.015C107.332 128.87 107.742 128.753 108.184 128.663C108.629 128.569 109.158 128.522 109.771 128.522ZM51.5293 144.522C52.2676 144.522 52.8633 144.81 53.3164 145.384C53.7734 145.958 54.002 146.8 54.002 147.909C54.002 148.651 53.8945 149.276 53.6797 149.784C53.4648 150.288 53.168 150.669 52.7891 150.927C52.4102 151.185 51.9746 151.313 51.4824 151.313C51.166 151.313 50.8945 151.274 50.668 151.196C50.4414 151.114 50.248 151.011 50.0879 150.886C49.9277 150.757 49.7891 150.62 49.6719 150.476H49.5781C49.6094 150.632 49.6328 150.792 49.6484 150.956C49.6641 151.12 49.6719 151.28 49.6719 151.437V154.079H47.8848V144.646H49.3379L49.5898 145.495H49.6719C49.7891 145.319 49.9316 145.157 50.0996 145.009C50.2676 144.86 50.4688 144.743 50.7031 144.657C50.9414 144.567 51.2168 144.522 51.5293 144.522ZM50.9551 145.952C50.6426 145.952 50.3945 146.017 50.2109 146.146C50.0273 146.274 49.8926 146.468 49.8066 146.726C49.7246 146.983 49.6797 147.31 49.6719 147.704V147.897C49.6719 148.319 49.7109 148.677 49.7891 148.97C49.8711 149.263 50.0059 149.485 50.1934 149.638C50.3848 149.79 50.6465 149.866 50.9785 149.866C51.252 149.866 51.4766 149.79 51.6523 149.638C51.8281 149.485 51.959 149.263 52.0449 148.97C52.1348 148.673 52.1797 148.312 52.1797 147.886C52.1797 147.245 52.0801 146.763 51.8809 146.438C51.6816 146.114 51.373 145.952 50.9551 145.952ZM58.1797 144.522C58.7852 144.522 59.3066 144.64 59.7441 144.874C60.1816 145.104 60.5195 145.44 60.7578 145.882C60.9961 146.323 61.1152 146.862 61.1152 147.499V148.366H56.8906C56.9102 148.87 57.0605 149.267 57.3418 149.556C57.627 149.841 58.0215 149.983 58.5254 149.983C58.9434 149.983 59.3262 149.94 59.6738 149.854C60.0215 149.769 60.3789 149.64 60.7461 149.468V150.851C60.4219 151.011 60.082 151.128 59.7266 151.202C59.375 151.276 58.9473 151.313 58.4434 151.313C57.7871 151.313 57.2051 151.192 56.6973 150.95C56.1934 150.708 55.7969 150.339 55.5078 149.843C55.2227 149.347 55.0801 148.722 55.0801 147.968C55.0801 147.202 55.209 146.565 55.4668 146.058C55.7285 145.546 56.0918 145.163 56.5566 144.909C57.0215 144.651 57.5625 144.522 58.1797 144.522ZM58.1914 145.794C57.8438 145.794 57.5547 145.905 57.3242 146.128C57.0977 146.351 56.9668 146.7 56.9316 147.177H59.4395C59.4355 146.911 59.3867 146.675 59.293 146.468C59.2031 146.261 59.0664 146.097 58.8828 145.976C58.7031 145.854 58.4727 145.794 58.1914 145.794ZM72.3242 144.646V151.196H62.5684V144.646H64.3555V149.854H66.5527V144.646H68.3398V149.854H70.5371V144.646H72.3242ZM76.9062 144.522C77.5117 144.522 78.0332 144.64 78.4707 144.874C78.9082 145.104 79.2461 145.44 79.4844 145.882C79.7227 146.323 79.8418 146.862 79.8418 147.499V148.366H75.6172C75.6367 148.87 75.7871 149.267 76.0684 149.556C76.3535 149.841 76.748 149.983 77.252 149.983C77.6699 149.983 78.0527 149.94 78.4004 149.854C78.748 149.769 79.1055 149.64 79.4727 149.468V150.851C79.1484 151.011 78.8086 151.128 78.4531 151.202C78.1016 151.276 77.6738 151.313 77.1699 151.313C76.5137 151.313 75.9316 151.192 75.4238 150.95C74.9199 150.708 74.5234 150.339 74.2344 149.843C73.9492 149.347 73.8066 148.722 73.8066 147.968C73.8066 147.202 73.9355 146.565 74.1934 146.058C74.4551 145.546 74.8184 145.163 75.2832 144.909C75.748 144.651 76.2891 144.522 76.9062 144.522ZM76.918 145.794C76.5703 145.794 76.2812 145.905 76.0508 146.128C75.8242 146.351 75.6934 146.7 75.6582 147.177H78.166C78.1621 146.911 78.1133 146.675 78.0195 146.468C77.9297 146.261 77.793 146.097 77.6094 145.976C77.4297 145.854 77.1992 145.794 76.918 145.794ZM83.082 144.646V147.165H85.5781V144.646H87.3652V151.196H85.5781V148.495H83.082V151.196H81.2949V144.646H83.082ZM90.9688 144.646V147.235C90.9688 147.368 90.9629 147.536 90.9512 147.739C90.9434 147.938 90.9316 148.142 90.916 148.349C90.9004 148.556 90.8848 148.741 90.8691 148.905C90.8535 149.069 90.8418 149.181 90.834 149.239L93.8574 144.646H96.0078V151.196H94.2793V148.583C94.2793 148.368 94.2871 148.132 94.3027 147.874C94.3184 147.612 94.3359 147.366 94.3555 147.136C94.375 146.905 94.3887 146.731 94.3965 146.614L91.3848 151.196H89.2402V144.646H90.9688ZM98.8848 151.196H96.9512L98.7148 148.606C98.4922 148.513 98.2832 148.384 98.0879 148.22C97.8926 148.052 97.7344 147.841 97.6133 147.587C97.4922 147.333 97.4316 147.028 97.4316 146.673C97.4316 146.021 97.6777 145.521 98.1699 145.173C98.666 144.821 99.3047 144.646 100.086 144.646H103.133V151.196H101.346V148.759H100.361L98.8848 151.196ZM99.1836 146.685C99.1836 146.958 99.291 147.173 99.5059 147.329C99.7246 147.481 100.006 147.558 100.35 147.558H101.346V145.905H100.121C99.8008 145.905 99.5645 145.983 99.4121 146.14C99.2598 146.292 99.1836 146.474 99.1836 146.685Z" fill="#F5F6FF"/>
</svg>

<svg width="151" height="196" fill="none" xmlns="http://www.w3.org/2000/svg"><path d="M69.698 0h-49.07C13.722 0 8.633 1.387 5.362 4.165 2.454 7.292 1 12.153 1 18.751v20.835c0 6.598 1.454 11.285 4.362 14.063 3.271 3.126 8.36 4.688 15.266 4.688h44.708c4.725 0 8.36 1.216 10.905 3.646 2.544 2.778 3.816 6.425 3.816 10.939v7.813H20.628c-6.906 0-11.995 1.389-15.266 4.167C2.454 88.027 1 92.889 1 99.486v77.09c0 6.597 1.454 11.285 4.362 14.063 3.271 3.126 8.36 4.688 15.266 4.688h110.135c6.906 0 11.813-1.562 14.721-4.688 3.271-2.778 4.907-7.466 4.907-14.063V78.651c0-26.39-7.451-46.184-22.354-59.38C113.498 6.424 94.051 0 69.698 0z" fill="#FF7D04"/><path d="M41.135 128.019a4.08 4.08 0 00-1.143.164c-.375.109-.742.24-1.101.392l-.575-1.465a6.958 6.958 0 012.854-.603c.629 0 1.19.099 1.682.299.496.195.914.482 1.254.861.343.379.603.842.779 1.389.18.547.27 1.17.27 1.869 0 .879-.15 1.648-.446 2.308a3.332 3.332 0 01-1.36 1.536c-.613.363-1.396.544-2.349.544-.492 0-.935-.035-1.33-.105a6.369 6.369 0 01-1.201-.334v-1.523c.457.144.879.255 1.265.334a5.92 5.92 0 001.16.117c.368 0 .692-.045.973-.135.285-.094.526-.23.72-.41.2-.184.354-.41.464-.68a2.8 2.8 0 00.193-.955H39.53v-1.488h3.703a2.678 2.678 0 00-.17-.891 1.805 1.805 0 00-1.084-1.084 2.383 2.383 0 00-.843-.14zm7.441.627v2.519h2.496v-2.519h1.787v6.55h-1.787v-2.701h-2.496v2.701H46.79v-6.55h1.787zm11.578 1.341H58.01v5.209h-1.787v-5.209h-2.15v-1.341h6.081v1.341zm3.926-1.465c.606 0 1.127.118 1.564.352.438.23.776.566 1.014 1.008.239.441.358.98.358 1.617v.867H62.79c.02.504.17.901.451 1.19.285.285.68.427 1.184.427.418 0 .8-.043 1.148-.129a5.762 5.762 0 001.073-.386v1.383c-.325.16-.665.277-1.02.351-.352.074-.78.111-1.283.111-.656 0-1.238-.121-1.746-.363a2.711 2.711 0 01-1.19-1.107c-.285-.496-.428-1.121-.428-1.875 0-.766.13-1.403.387-1.91.262-.512.625-.895 1.09-1.149.465-.258 1.006-.387 1.623-.387zm.012 1.272c-.348 0-.637.111-.867.334-.227.223-.358.572-.393 1.049h2.508a1.765 1.765 0 00-.147-.709 1.1 1.1 0 00-.41-.492c-.18-.122-.41-.182-.691-.182zm8.021-1.272c.739 0 1.334.288 1.787.862.457.574.686 1.416.686 2.525 0 .742-.108 1.367-.322 1.875-.215.504-.512.885-.891 1.143a2.265 2.265 0 01-1.307.386c-.316 0-.588-.039-.814-.117a2.09 2.09 0 01-.58-.31 2.784 2.784 0 01-.416-.41h-.094a5.075 5.075 0 01.094.961v2.642h-1.787v-9.433h1.453l.252.849h.082c.117-.176.26-.338.428-.486.168-.149.369-.266.603-.352a2.33 2.33 0 01.826-.135zm-.574 1.43c-.312 0-.56.065-.744.194-.184.128-.318.322-.404.58-.082.257-.127.584-.135.978v.193c0 .422.039.78.117 1.073.082.293.217.515.404.668.192.152.454.228.785.228.274 0 .499-.076.674-.228.176-.153.307-.375.393-.668.09-.297.135-.658.135-1.084 0-.641-.1-1.123-.3-1.448-.198-.324-.507-.486-.925-.486zm10.477-1.306v6.55h-1.793v-5.209H77.85v5.209h-1.787v-6.55h5.953zm5.52-.124c.737 0 1.333.288 1.786.862.457.574.686 1.416.686 2.525 0 .742-.108 1.367-.322 1.875-.215.504-.512.885-.891 1.143a2.265 2.265 0 01-1.307.386c-.316 0-.588-.039-.814-.117a2.092 2.092 0 01-.58-.31 2.79 2.79 0 01-.416-.41h-.094a5.074 5.074 0 01.094.961v2.642H83.89v-9.433h1.453l.252.849h.082c.117-.176.26-.338.428-.486.167-.149.369-.266.603-.352a2.33 2.33 0 01.826-.135zm-.575 1.43c-.313 0-.56.065-.744.194-.184.128-.319.322-.404.58-.082.257-.127.584-.135.978v.193c0 .422.039.78.117 1.073.082.293.217.515.404.668.192.152.453.228.785.228.274 0 .498-.076.674-.228.176-.153.307-.375.393-.668.09-.297.135-.658.135-1.084 0-.641-.1-1.123-.3-1.448-.198-.324-.507-.486-.925-.486zm7.207-1.441c.879 0 1.553.191 2.021.574.47.383.704.965.704 1.746v4.365h-1.249l-.345-.89h-.047a3.352 3.352 0 01-.574.574c-.196.148-.42.258-.674.328a3.53 3.53 0 01-.926.105c-.387 0-.734-.074-1.043-.222a1.658 1.658 0 01-.72-.68c-.176-.308-.264-.699-.264-1.172 0-.695.244-1.207.732-1.535.489-.332 1.22-.516 2.198-.551l1.136-.035v-.287c0-.344-.09-.596-.27-.756-.179-.16-.429-.24-.75-.24-.316 0-.626.045-.931.135-.305.09-.61.203-.914.34l-.592-1.207a5.04 5.04 0 011.166-.434 5.63 5.63 0 011.342-.158zm.95 3.65l-.692.024c-.578.015-.98.119-1.207.31a.948.948 0 00-.334.756c0 .273.08.469.24.586.16.113.37.17.627.17.383 0 .705-.113.967-.34.265-.227.398-.549.398-.967v-.539zm5.349-3.515v2.589c0 .133-.006.301-.018.504-.008.199-.019.403-.035.61a28.559 28.559 0 01-.082.89l3.023-4.593h2.151v6.55h-1.729v-2.613c0-.215.008-.451.024-.709.015-.262.033-.508.053-.738a43.6 43.6 0 00.041-.522l-3.012 4.582h-2.145v-6.55h1.729zm4.547-2.819c-.043.414-.16.779-.352 1.096-.191.316-.49.562-.896.738-.407.176-.954.264-1.641.264-.707 0-1.258-.084-1.652-.252-.395-.172-.676-.414-.844-.727a2.86 2.86 0 01-.305-1.119h1.6c.035.442.146.735.334.879.187.141.488.211.902.211.344 0 .625-.078.844-.234.219-.157.35-.442.392-.856h1.618zm4.757 2.695c.473 0 .915.063 1.325.188.41.121.742.311.996.568.254.254.381.582.381.985 0 .394-.119.709-.358.943-.238.231-.554.397-.949.498v.059c.277.066.527.156.75.269.227.114.406.27.539.469.133.199.199.461.199.785 0 .363-.115.699-.345 1.008-.231.305-.584.551-1.061.738-.473.188-1.08.281-1.822.281-.352 0-.684-.015-.996-.046a7.326 7.326 0 01-.85-.135 3.941 3.941 0 01-.674-.223v-1.476c.27.125.602.24.996.345.399.106.823.159 1.272.159.324 0 .617-.024.879-.071.265-.047.474-.125.627-.234a.531.531 0 00.234-.451.538.538 0 00-.205-.434c-.133-.117-.338-.203-.615-.258a5.159 5.159 0 00-1.043-.088h-.692v-1.236h.657c.593 0 1.052-.049 1.377-.146.324-.098.486-.278.486-.54 0-.21-.104-.369-.311-.474-.207-.106-.548-.158-1.025-.158-.309 0-.648.037-1.02.111-.371.07-.718.172-1.043.305l-.527-1.248a7.791 7.791 0 011.231-.352 7.776 7.776 0 011.587-.141zm-58.242 16c.739 0 1.334.288 1.787.862.457.574.686 1.416.686 2.525 0 .742-.108 1.367-.322 1.875-.215.504-.512.885-.89 1.143a2.265 2.265 0 01-1.308.386c-.316 0-.587-.039-.814-.117a2.09 2.09 0 01-.58-.31 2.788 2.788 0 01-.416-.41h-.094a5.042 5.042 0 01.094.961v2.642h-1.787v-9.433h1.453l.252.849h.082c.117-.176.26-.338.428-.486.168-.149.369-.266.603-.352a2.33 2.33 0 01.826-.135zm-.574 1.43c-.312 0-.56.065-.744.194-.184.128-.318.322-.404.58-.082.257-.127.584-.135.978v.193c0 .422.039.78.117 1.073.082.293.217.515.404.668.192.152.454.228.785.228.274 0 .499-.076.674-.228.176-.153.307-.375.393-.668.09-.297.135-.658.135-1.084 0-.641-.1-1.123-.3-1.448-.198-.324-.507-.486-.925-.486zm7.225-1.43c.605 0 1.127.118 1.564.352.438.23.776.566 1.014 1.008.238.441.357.98.357 1.617v.867h-4.224c.02.504.17.901.45 1.19.286.285.68.427 1.184.427.418 0 .801-.043 1.149-.129a5.762 5.762 0 001.072-.386v1.383c-.324.16-.664.277-1.02.351a6.331 6.331 0 01-1.283.111c-.656 0-1.238-.121-1.746-.363a2.711 2.711 0 01-1.19-1.107c-.284-.496-.427-1.121-.427-1.875 0-.766.129-1.403.387-1.91a2.628 2.628 0 011.09-1.149c.465-.258 1.005-.387 1.623-.387zm.011 1.272c-.347 0-.636.111-.867.334-.226.223-.357.572-.392 1.049h2.508a1.767 1.767 0 00-.147-.709 1.1 1.1 0 00-.41-.492c-.18-.122-.41-.182-.692-.182zm14.133-1.148v6.55h-9.756v-6.55h1.788v5.208h2.197v-5.208h1.787v5.208h2.197v-5.208h1.787zm4.582-.124c.606 0 1.127.118 1.565.352.437.23.775.566 1.013 1.008.239.441.358.98.358 1.617v.867h-4.225c.02.504.17.901.451 1.19.285.285.68.427 1.184.427.418 0 .8-.043 1.148-.129a5.764 5.764 0 001.073-.386v1.383a4.26 4.26 0 01-1.02.351c-.351.074-.78.111-1.283.111-.656 0-1.238-.121-1.746-.363a2.71 2.71 0 01-1.19-1.107c-.285-.496-.427-1.121-.427-1.875 0-.766.129-1.403.386-1.91.262-.512.625-.895 1.09-1.149.465-.258 1.006-.387 1.623-.387zm.012 1.272c-.348 0-.637.111-.867.334-.227.223-.358.572-.393 1.049h2.508a1.763 1.763 0 00-.147-.709 1.1 1.1 0 00-.41-.492c-.18-.122-.41-.182-.691-.182zm6.164-1.148v2.519h2.496v-2.519h1.787v6.55h-1.787v-2.701h-2.496v2.701h-1.787v-6.55h1.787zm7.887 0v2.589c0 .133-.006.301-.018.504-.008.199-.02.403-.035.61a27.85 27.85 0 01-.082.89l3.023-4.593h2.15v6.55H94.28v-2.613c0-.215.008-.451.024-.709.015-.262.033-.508.053-.738.019-.231.033-.405.04-.522l-3.011 4.582H89.24v-6.55h1.729zm7.916 6.55H96.95l1.764-2.59a2.43 2.43 0 01-.627-.386 1.9 1.9 0 01-.475-.633 2.125 2.125 0 01-.181-.914c0-.652.246-1.152.738-1.5.496-.352 1.135-.527 1.916-.527h3.047v6.55h-1.787v-2.437h-.985l-1.476 2.437zm.299-4.511c0 .273.107.488.322.644.219.152.5.229.844.229h.996v-1.653h-1.225c-.32 0-.556.078-.709.235a.744.744 0 00-.228.545z" fill="#F5F6FF"/></svg>
